X:1
T:Szent, szent, szent az Isten
T: 
C:Unknown
Z:Public Domain
L:1/8
Q:1/4=120
M:4/4
K:C
V:1 treble nm="MusicXML Part"
%%MIDI program 0
V:1
 C4 E4 | F3 G E2 D2 | C4 E4 | F3 G E2 D2 | A4 B4 | c3 G F2 E2 | E G2 E D C2 D | D C3 C2 z2 |] %8
w: Szent, szent,|szent az Is- ten,|Szent, szent,|szent az Is- ten,|Ég és|föld di- csér- je,|ho- zsan- na, ho- zsan- na,|ho- zsan- na!|

